brandFactory_export/3.Masa/Formacion_3Masa.svg

<?xml version="1.0" encoding="UTF-8"?>
<svg width="24px" height="24px" viewBox="0 0 24 24" version="1.1" xmlns="http://www.w3.org/2000/svg" xmlns:xlink="http://www.w3.org/1999/xlink">
    <title>3.Masa/Formacion_3Masa</title>
    <g id="Symbols" stroke="none" stroke-width="1" fill="none" fill-rule="evenodd">
        <g id="3.Masa/Formacion_3Masa" fill="#5CB615" fill-rule="nonzero">
            <path d="M22.9882353,12.2756303 C23.4117647,12.692437 23.6235294,13.3042017 23.6235294,14.087395 L23.6235294,19.0252101 C23.6235294,19.8117647 23.4117647,20.4268908 22.9882353,20.8504202 C22.5512605,21.2907563 21.902521,21.512605 21.0554622,21.512605 L10.2117647,21.5193277 C9.36806723,21.5193277 8.71932773,21.297479 8.2789916,20.8571429 C7.85882353,20.4336134 7.64369748,19.8218487 7.64369748,19.0319328 L7.64369748,14.0941176 C7.64369748,13.307563 7.85882353,12.6991597 8.2789916,12.2789916 C8.71596639,11.8487395 9.36470588,11.6302521 10.2084034,11.6302521 L21.0521008,11.6235294 C21.902521,11.6268908 22.5546218,11.8453782 22.9882353,12.2756303 Z M22.7798319,22.2016807 C23.1865546,22.2016807 23.512605,22.5210084 23.512605,22.9142857 C23.512605,23.307563 23.1831933,23.6268908 22.7798319,23.6268908 L8.61848739,23.6268908 C8.21176471,23.6268908 7.88571429,23.307563 7.88571429,22.9142857 C7.88571429,22.5210084 8.21512605,22.2016807 8.61848739,22.2016807 L22.7798319,22.2016807 L22.7798319,22.2016807 Z M9.98319328,11.0386555 C8.29579832,11.0386555 6.96134454,10.5714286 6.01680672,9.65378151 C5.03529412,8.69579832 4.53445378,7.30756303 4.53445378,5.52941176 C4.53445378,3.7512605 5.03193277,2.36302521 6.01344538,1.39831933 C6.95798319,0.47394958 8.29243697,0.00336134454 9.97983193,0.00336134454 C11.6672269,0.00336134454 13.005042,0.470588235 13.9529412,1.39495798 C14.9411765,2.35966387 15.4420168,3.74789916 15.4420168,5.52605042 C15.4420168,7.30420168 14.9411765,8.69243697 13.9529412,9.65378151 C13.0084034,10.5714286 11.6705882,11.0386555 9.98319328,11.0386555 Z M7.36806723,12.0840336 C6.99159664,12.6319328 6.79663866,13.3176471 6.79663866,14.1378151 L6.79663866,19.0756303 C6.79663866,19.8252101 6.96134454,20.4638655 7.27394958,20.994958 L1.29747899,20.994958 C0.581512605,20.994958 0,20.4302521 0,19.7378151 L0,18.1411765 C0,16.4268908 0.561344538,14.9512605 1.62689076,13.8756303 C2.77983193,12.7058824 4.47058824,12.0907563 6.51428571,12.0907563 L7.36806723,12.0907563 L7.36806723,12.0840336 Z" id="Formacion_3Masa"></path>
        </g>
    </g>
</svg>

<svg width="24" height="24" viewBox="0 0 24 24" xmlns="http://www.w3.org/2000/svg"><path d="M22.988 12.276c.424.416.636 1.028.636 1.811v4.938c0 .787-.212 1.402-.636 1.825-.437.44-1.085.663-1.933.663l-10.843.006c-.844 0-1.493-.222-1.933-.662-.42-.423-.635-1.035-.635-1.825v-4.938c0-.786.215-1.395.635-1.815.437-.43 1.086-.649 1.93-.649l10.843-.006c.85.003 1.503.221 1.936.652zm-.208 9.926c.407 0 .733.319.733.712 0 .394-.33.713-.733.713H8.618a.722.722 0 01-.732-.713c0-.393.33-.712.732-.712H22.78zM9.983 11.039c-1.687 0-3.022-.468-3.966-1.385-.982-.958-1.483-2.346-1.483-4.125 0-1.778.498-3.166 1.48-4.13C6.957.473 8.291.002 9.98.002c1.687 0 3.025.468 3.973 1.392.988.965 1.489 2.353 1.489 4.131s-.5 3.166-1.49 4.128c-.944.917-2.281 1.385-3.969 1.385zm-2.615 1.045c-.376.548-.571 1.234-.571 2.054v4.938c0 .75.164 1.388.477 1.919H1.297C.582 20.995 0 20.43 0 19.738V18.14c0-1.714.561-3.19 1.627-4.265 1.153-1.17 2.844-1.785 4.887-1.785h.854v-.007z" fill="#5CB615" fill-rule="nonzero"/></svg>
